report_00007_2020-12-11T15:55:29.892Z/server-response-time/comparison/line/7_vs_8.svg

<svg width="640" height="500" xmlns="http://www.w3.org/2000/svg" xmlns:xlink="http://www.w3.org/1999/xlink"><path fill="#fff" d="M0 0h640v500H0z"/><defs><path id="d" stroke-width=".222" stroke="currentColor" d="M-1-1h2v2h-2z"/><path id="b" stroke-width=".222" stroke="currentColor" d="M0-1.33l-1.33 2h2.66z"/><path id="f" stroke-width=".222" stroke="currentColor" d="M0 1.33L1.265.411.782-1.067l-1.564-.009-.483 1.487z"/><use xlink:href="#b" id="c" stroke="currentColor" transform="rotate(180)"/><use xlink:href="#d" id="e" stroke="currentColor" transform="rotate(45)"/><circle id="a" stroke-width=".222" stroke="currentColor" cx="0" cy="0" r="1"/></defs><g fill="none" color="#000" stroke="currentColor"><path stroke="#000" d="M53.9 414.8h9m552.1 0h-9"/><text transform="translate(45.6 418.7)" stroke="none" fill="#000" font-family="Arial" font-size="12" text-anchor="end"><tspan>1.4</tspan></text></g><g fill="none" color="#000" stroke="currentColor"><path stroke="#000" d="M53.9 358.1h9m552.1 0h-9"/><text transform="translate(45.6 362)" stroke="none" fill="#000" font-family="Arial" font-size="12" text-anchor="end"><tspan>1.6</tspan></text></g><g fill="none" color="#000" stroke="currentColor"><path stroke="#000" d="M53.9 301.5h9m552.1 0h-9"/><text transform="translate(45.6 305.4)" stroke="none" fill="#000" font-family="Arial" font-size="12" text-anchor="end"><tspan>1.8</tspan></text></g><g fill="none" color="#000" stroke="currentColor"><path stroke="#000" d="M53.9 244.8h9m552.1 0h-9"/><text transform="translate(45.6 248.7)" stroke="none" fill="#000" font-family="Arial" font-size="12" text-anchor="end"><tspan>2</tspan></text></g><g fill="none" color="#000" stroke="currentColor"><path stroke="#000" d="M53.9 188.1h9m552.1 0h-9"/><text transform="translate(45.6 192)" stroke="none" fill="#000" font-family="Arial" font-size="12" text-anchor="end"><tspan>2.2</tspan></text></g><g fill="none" color="#000" stroke="currentColor"><path stroke="#000" d="M53.9 131.5h9m552.1 0h-9"/><text transform="translate(45.6 135.4)" stroke="none" fill="#000" font-family="Arial" font-size="12" text-anchor="end"><tspan>2.4</tspan></text></g><g fill="none" color="#000" stroke="currentColor"><path stroke="#000" d="M53.9 74.8h9m552.1 0h-9"/><text transform="translate(45.6 78.7)" stroke="none" fill="#000" font-family="Arial" font-size="12" text-anchor="end"><tspan>2.6</tspan></text></g><g fill="none" color="#000" stroke="currentColor"><path stroke="#000" d="M53.9 18.1h9m552.1 0h-9"/><text transform="translate(45.6 22)" stroke="none" fill="#000" font-family="Arial" font-size="12" text-anchor="end"><tspan>2.8</tspan></text></g><g fill="none" color="#000" stroke="currentColor"><path stroke="#000" d="M53.9 446v-9m0-418.9v9"/><text transform="translate(53.9 467.9)" stroke="none" fill="#000" font-family="Arial" font-size="12" text-anchor="middle"><tspan>0</tspan></text></g><g fill="none" color="#000" stroke="currentColor"><path stroke="#000" d="M110.6 446v-9m0-418.9v9"/><text transform="translate(110.6 467.9)" stroke="none" fill="#000" font-family="Arial" font-size="12" text-anchor="middle"><tspan>10</tspan></text></g><g fill="none" color="#000" stroke="currentColor"><path stroke="#000" d="M167.3 446v-9m0-418.9v9"/><text transform="translate(167.3 467.9)" stroke="none" fill="#000" font-family="Arial" font-size="12" text-anchor="middle"><tspan>20</tspan></text></g><g fill="none" color="#000" stroke="currentColor"><path stroke="#000" d="M223.9 446v-9m0-418.9v9"/><text transform="translate(223.9 467.9)" stroke="none" fill="#000" font-family="Arial" font-size="12" text-anchor="middle"><tspan>30</tspan></text></g><g fill="none" color="#000" stroke="currentColor"><path stroke="#000" d="M280.6 446v-9m0-418.9v9"/><text transform="translate(280.6 467.9)" stroke="none" fill="#000" font-family="Arial" font-size="12" text-anchor="middle"><tspan>40</tspan></text></g><g fill="none" color="#000" stroke="currentColor"><path stroke="#000" d="M337.3 446v-9m0-418.9v9"/><text transform="translate(337.3 467.9)" stroke="none" fill="#000" font-family="Arial" font-size="12" text-anchor="middle"><tspan>50</tspan></text></g><g fill="none" color="#000" stroke="currentColor"><path stroke="#000" d="M394 446v-9m0-418.9v9"/><text transform="translate(394 467.9)" stroke="none" fill="#000" font-family="Arial" font-size="12" text-anchor="middle"><tspan>60</tspan></text></g><g fill="none" color="#000" stroke="currentColor"><path stroke="#000" d="M450.6 446v-9m0-418.9v9"/><text transform="translate(450.6 467.9)" stroke="none" fill="#000" font-family="Arial" font-size="12" text-anchor="middle"><tspan>70</tspan></text></g><g fill="none" color="#000" stroke="currentColor"><path stroke="#000" d="M507.3 446v-9m0-418.9v9"/><text transform="translate(507.3 467.9)" stroke="none" fill="#000" font-family="Arial" font-size="12" text-anchor="middle"><tspan>80</tspan></text></g><g fill="none" color="#000" stroke="currentColor"><path stroke="#000" d="M564 446v-9m0-418.9v9"/><text transform="translate(564 467.9)" stroke="none" fill="#000" font-family="Arial" font-size="12" text-anchor="middle"><tspan>90</tspan></text></g><path stroke="#000" d="M53.9 18.1V446H615V18.1H53.9z" fill="none" color="#000"/><text transform="translate(275.6 485.9)" stroke="none" fill="#000" font-family="Arial" font-size="12" text-anchor="end" color="#000"><tspan>pages+cached+noexternal+nosvg</tspan></text><path stroke="#9400D3" d="M283.9 482h42.2M53.9 272l5.7-2 5.6 77.9 5.7-22.6 5.7-60.1 5.6 98.6 5.7-5.9 5.7 53.2 5.6-187.6 5.7 34.1 5.7 41.3 5.6 22.1 5.7-21.5 5.7 123.3 5.6 12.7 5.7-167.2 5.7 159 5.7-194.4 5.6 117.9 5.7-60.7 5.7-64.6 5.6 107.7 5.7-16.1 5.7-84.5 5.6 74.3 5.7-32.1 5.7-50.1 5.6 145.9 5.7 50.7 5.7-176.8 5.6 108 5.7 39.1 5.7-40.5 5.6 17.2 5.7-120.4 5.7 108.8 5.6-157.8 5.7 15.3 5.7 108.5 5.6-209.7 5.7 22.7 5.7 160.1 5.6 56.1 5.7-141.1 5.7 38.3 5.6 78.4 5.7-78.4 5.7 71.4 5.6-148 5.7 48.2 5.7 119.9 5.7-63.5 5.6-1.7 5.7-14.4 5.7 35.1 5.6-214.2 5.7 268.3 5.7-90.4 5.6-27.2 5.7 16.5 5.7 106.5 5.6-173.1 5.7 144.5 5.7-65.5 5.6 60.9 5.7 8.3 5.7-105.5 5.6 197 5.7.3 5.7-107.7 5.6 55.8 5.7-196.6 5.7 210.2 5.6-63.2 5.7-21.5 5.7 20.7 5.6-88.7 5.7 176 5.7-93 5.6 35.7 5.7-43.9 5.7-5.4 5.6 118.5 5.7-96.1 5.7 31.2 5.7 71.4 5.6-134.3 5.7 43.9 5.7-41.7 5.6-87 5.7 60.1 5.7 86.7 5.6-209.1 5.7 192.4 5.7 64.6 5.6-124.1 5.7 65.4 5.7 80.5 5.6 6.5 5.7-123.2" fill="none" color="#000"/><text transform="translate(575.1 485.9)" stroke="none" fill="#000" font-family="Arial" font-size="12" text-anchor="end" color="#000"><tspan>pages+cached+noexternal+noimg</tspan></text><path stroke="#009E73" d="M583.4 482h42.2M53.9 392.4l5.7-187.6 5.6 83.9 5.7 62.4 5.7-32.3 5.6 94.3 5.7-89.8 5.7-227 5.6 337.8 5.7-199.5 5.7-57.8 5.6 255 5.7-112.5 5.7-68.3 5.6 49.9 5.7 62.1 5.7 10.4 5.7-24.9 5.6-19.3 5.7-120.7 5.7 173.4 5.6 28.1 5.7-75.9 5.7-117.1 5.6 86.5 5.7 54.9 5.7-42.5 5.6-13 5.7 20.4 5.7 108.8 5.6-125 5.7 36.6 5.7-122.4 5.6 185.6 5.7-178.5 5.7 107.4 5.6-179.4 5.7 201.5 5.7-6.3 5.6-24.6 5.7-23.8 5.7-192.7 5.6 189.8 5.7 137.5 5.7-172.3 5.6 7.1 5.7 32 5.7 130.1 5.6-203.5 5.7 24.7 5.7 119.8 5.7-115.6 5.6 30 5.7 144.3 5.7-293.9 5.6 176 5.7 109.9 5.7-170.5 5.6-229.6 5.7 359.6L394 94.3l5.6 240.6 5.7 26.1 5.7-151.6 5.6 40.5 5.7 149.9 5.7-84.7 5.6-52.2 5.7 19.6 5.7 13.9 5.6-170.9 5.7 189.3L462 302l5.6 27 5.7 5.1 5.7 77.3 5.6-87.5 5.7-79.4 5.7 164.7 5.6-95.8 5.7-10.8 5.7 19.6 5.6-129 5.7 244.6 5.7-113.1 5.7-5.7 5.6 35.5 5.7-103.2 5.7 1.7 5.6 62.1 5.7 99.2 5.7-98.9 5.6-25.3 5.7 9.1 5.7-5.4 5.6 117.1 5.7-114.5 5.7 2.8 5.6 111.1L615 302" fill="none" color="#000"/><g fill="none" color="#000" stroke="currentColor"><path stroke="#000" d="M53.9 18.1V446H615V18.1H53.9z"/></g></svg>

<?xml version="1.0" encoding="utf-8"  standalone="no"?>
<svg 
 width="640" height="500"
 viewBox="0 0 640 500"
 xmlns="http://www.w3.org/2000/svg"
 xmlns:xlink="http://www.w3.org/1999/xlink"
>

<title>Gnuplot</title>
<desc>Produced by GNUPLOT 5.4 patchlevel 0 </desc>

<g id="gnuplot_canvas">

<rect x="0" y="0" width="640" height="500" fill="#ffffff"/>
<defs>

	<circle id='gpDot' r='0.5' stroke-width='0.5' stroke='currentColor'/>
	<path id='gpPt0' stroke-width='0.222' stroke='currentColor' d='M-1,0 h2 M0,-1 v2'/>
	<path id='gpPt1' stroke-width='0.222' stroke='currentColor' d='M-1,-1 L1,1 M1,-1 L-1,1'/>
	<path id='gpPt2' stroke-width='0.222' stroke='currentColor' d='M-1,0 L1,0 M0,-1 L0,1 M-1,-1 L1,1 M-1,1 L1,-1'/>
	<rect id='gpPt3' stroke-width='0.222' stroke='currentColor' x='-1' y='-1' width='2' height='2'/>
	<rect id='gpPt4' stroke-width='0.222' stroke='currentColor' fill='currentColor' x='-1' y='-1' width='2' height='2'/>
	<circle id='gpPt5' stroke-width='0.222' stroke='currentColor' cx='0' cy='0' r='1'/>
	<use xlink:href='#gpPt5' id='gpPt6' fill='currentColor' stroke='none'/>
	<path id='gpPt7' stroke-width='0.222' stroke='currentColor' d='M0,-1.33 L-1.33,0.67 L1.33,0.67 z'/>
	<use xlink:href='#gpPt7' id='gpPt8' fill='currentColor' stroke='none'/>
	<use xlink:href='#gpPt7' id='gpPt9' stroke='currentColor' transform='rotate(180)'/>
	<use xlink:href='#gpPt9' id='gpPt10' fill='currentColor' stroke='none'/>
	<use xlink:href='#gpPt3' id='gpPt11' stroke='currentColor' transform='rotate(45)'/>
	<use xlink:href='#gpPt11' id='gpPt12' fill='currentColor' stroke='none'/>
	<path id='gpPt13' stroke-width='0.222' stroke='currentColor' d='M0,1.330 L1.265,0.411 L0.782,-1.067 L-0.782,-1.076 L-1.265,0.411 z'/>
	<use xlink:href='#gpPt13' id='gpPt14' fill='currentColor' stroke='none'/>
	<filter id='textbox' filterUnits='objectBoundingBox' x='0' y='0' height='1' width='1'>
	  <feFlood flood-color='#FFFFFF' flood-opacity='1' result='bgnd'/>
	  <feComposite in='SourceGraphic' in2='bgnd' operator='atop'/>
	</filter>
	<filter id='greybox' filterUnits='objectBoundingBox' x='0' y='0' height='1' width='1'>
	  <feFlood flood-color='lightgrey' flood-opacity='1' result='grey'/>
	  <feComposite in='SourceGraphic' in2='grey' operator='atop'/>
	</filter>
</defs>
<g fill="none" color="#FFFFFF" stroke="black" stroke-width="1.00" stroke-linecap="butt" stroke-linejoin="miter">
</g>
<g fill="none" color="black" stroke="currentColor" stroke-width="1.00" stroke-linecap="butt" stroke-linejoin="miter">
	<path stroke='black'  d='M53.9,414.8 L62.9,414.8 M615.0,414.8 L606.0,414.8  '/>	<g transform="translate(45.6,418.7)" stroke="none" fill="black" font-family="Arial" font-size="12.00"  text-anchor="end">
		<text><tspan font-family="Arial" > 1.4</tspan></text>
	</g>
</g>
<g fill="none" color="black" stroke="currentColor" stroke-width="1.00" stroke-linecap="butt" stroke-linejoin="miter">
	<path stroke='black'  d='M53.9,358.1 L62.9,358.1 M615.0,358.1 L606.0,358.1  '/>	<g transform="translate(45.6,362.0)" stroke="none" fill="black" font-family="Arial" font-size="12.00"  text-anchor="end">
		<text><tspan font-family="Arial" > 1.6</tspan></text>
	</g>
</g>
<g fill="none" color="black" stroke="currentColor" stroke-width="1.00" stroke-linecap="butt" stroke-linejoin="miter">
	<path stroke='black'  d='M53.9,301.5 L62.9,301.5 M615.0,301.5 L606.0,301.5  '/>	<g transform="translate(45.6,305.4)" stroke="none" fill="black" font-family="Arial" font-size="12.00"  text-anchor="end">
		<text><tspan font-family="Arial" > 1.8</tspan></text>
	</g>
</g>
<g fill="none" color="black" stroke="currentColor" stroke-width="1.00" stroke-linecap="butt" stroke-linejoin="miter">
	<path stroke='black'  d='M53.9,244.8 L62.9,244.8 M615.0,244.8 L606.0,244.8  '/>	<g transform="translate(45.6,248.7)" stroke="none" fill="black" font-family="Arial" font-size="12.00"  text-anchor="end">
		<text><tspan font-family="Arial" > 2</tspan></text>
	</g>
</g>
<g fill="none" color="black" stroke="currentColor" stroke-width="1.00" stroke-linecap="butt" stroke-linejoin="miter">
	<path stroke='black'  d='M53.9,188.1 L62.9,188.1 M615.0,188.1 L606.0,188.1  '/>	<g transform="translate(45.6,192.0)" stroke="none" fill="black" font-family="Arial" font-size="12.00"  text-anchor="end">
		<text><tspan font-family="Arial" > 2.2</tspan></text>
	</g>
</g>
<g fill="none" color="black" stroke="currentColor" stroke-width="1.00" stroke-linecap="butt" stroke-linejoin="miter">
	<path stroke='black'  d='M53.9,131.5 L62.9,131.5 M615.0,131.5 L606.0,131.5  '/>	<g transform="translate(45.6,135.4)" stroke="none" fill="black" font-family="Arial" font-size="12.00"  text-anchor="end">
		<text><tspan font-family="Arial" > 2.4</tspan></text>
	</g>
</g>
<g fill="none" color="black" stroke="currentColor" stroke-width="1.00" stroke-linecap="butt" stroke-linejoin="miter">
	<path stroke='black'  d='M53.9,74.8 L62.9,74.8 M615.0,74.8 L606.0,74.8  '/>	<g transform="translate(45.6,78.7)" stroke="none" fill="black" font-family="Arial" font-size="12.00"  text-anchor="end">
		<text><tspan font-family="Arial" > 2.6</tspan></text>
	</g>
</g>
<g fill="none" color="black" stroke="currentColor" stroke-width="1.00" stroke-linecap="butt" stroke-linejoin="miter">
	<path stroke='black'  d='M53.9,18.1 L62.9,18.1 M615.0,18.1 L606.0,18.1  '/>	<g transform="translate(45.6,22.0)" stroke="none" fill="black" font-family="Arial" font-size="12.00"  text-anchor="end">
		<text><tspan font-family="Arial" > 2.8</tspan></text>
	</g>
</g>
<g fill="none" color="black" stroke="currentColor" stroke-width="1.00" stroke-linecap="butt" stroke-linejoin="miter">
	<path stroke='black'  d='M53.9,446.0 L53.9,437.0 M53.9,18.1 L53.9,27.1  '/>	<g transform="translate(53.9,467.9)" stroke="none" fill="black" font-family="Arial" font-size="12.00"  text-anchor="middle">
		<text><tspan font-family="Arial" > 0</tspan></text>
	</g>
</g>
<g fill="none" color="black" stroke="currentColor" stroke-width="1.00" stroke-linecap="butt" stroke-linejoin="miter">
	<path stroke='black'  d='M110.6,446.0 L110.6,437.0 M110.6,18.1 L110.6,27.1  '/>	<g transform="translate(110.6,467.9)" stroke="none" fill="black" font-family="Arial" font-size="12.00"  text-anchor="middle">
		<text><tspan font-family="Arial" > 10</tspan></text>
	</g>
</g>
<g fill="none" color="black" stroke="currentColor" stroke-width="1.00" stroke-linecap="butt" stroke-linejoin="miter">
	<path stroke='black'  d='M167.3,446.0 L167.3,437.0 M167.3,18.1 L167.3,27.1  '/>	<g transform="translate(167.3,467.9)" stroke="none" fill="black" font-family="Arial" font-size="12.00"  text-anchor="middle">
		<text><tspan font-family="Arial" > 20</tspan></text>
	</g>
</g>
<g fill="none" color="black" stroke="currentColor" stroke-width="1.00" stroke-linecap="butt" stroke-linejoin="miter">
	<path stroke='black'  d='M223.9,446.0 L223.9,437.0 M223.9,18.1 L223.9,27.1  '/>	<g transform="translate(223.9,467.9)" stroke="none" fill="black" font-family="Arial" font-size="12.00"  text-anchor="middle">
		<text><tspan font-family="Arial" > 30</tspan></text>
	</g>
</g>
<g fill="none" color="black" stroke="currentColor" stroke-width="1.00" stroke-linecap="butt" stroke-linejoin="miter">
	<path stroke='black'  d='M280.6,446.0 L280.6,437.0 M280.6,18.1 L280.6,27.1  '/>	<g transform="translate(280.6,467.9)" stroke="none" fill="black" font-family="Arial" font-size="12.00"  text-anchor="middle">
		<text><tspan font-family="Arial" > 40</tspan></text>
	</g>
</g>
<g fill="none" color="black" stroke="currentColor" stroke-width="1.00" stroke-linecap="butt" stroke-linejoin="miter">
	<path stroke='black'  d='M337.3,446.0 L337.3,437.0 M337.3,18.1 L337.3,27.1  '/>	<g transform="translate(337.3,467.9)" stroke="none" fill="black" font-family="Arial" font-size="12.00"  text-anchor="middle">
		<text><tspan font-family="Arial" > 50</tspan></text>
	</g>
</g>
<g fill="none" color="black" stroke="currentColor" stroke-width="1.00" stroke-linecap="butt" stroke-linejoin="miter">
	<path stroke='black'  d='M394.0,446.0 L394.0,437.0 M394.0,18.1 L394.0,27.1  '/>	<g transform="translate(394.0,467.9)" stroke="none" fill="black" font-family="Arial" font-size="12.00"  text-anchor="middle">
		<text><tspan font-family="Arial" > 60</tspan></text>
	</g>
</g>
<g fill="none" color="black" stroke="currentColor" stroke-width="1.00" stroke-linecap="butt" stroke-linejoin="miter">
	<path stroke='black'  d='M450.6,446.0 L450.6,437.0 M450.6,18.1 L450.6,27.1  '/>	<g transform="translate(450.6,467.9)" stroke="none" fill="black" font-family="Arial" font-size="12.00"  text-anchor="middle">
		<text><tspan font-family="Arial" > 70</tspan></text>
	</g>
</g>
<g fill="none" color="black" stroke="currentColor" stroke-width="1.00" stroke-linecap="butt" stroke-linejoin="miter">
	<path stroke='black'  d='M507.3,446.0 L507.3,437.0 M507.3,18.1 L507.3,27.1  '/>	<g transform="translate(507.3,467.9)" stroke="none" fill="black" font-family="Arial" font-size="12.00"  text-anchor="middle">
		<text><tspan font-family="Arial" > 80</tspan></text>
	</g>
</g>
<g fill="none" color="black" stroke="currentColor" stroke-width="1.00" stroke-linecap="butt" stroke-linejoin="miter">
	<path stroke='black'  d='M564.0,446.0 L564.0,437.0 M564.0,18.1 L564.0,27.1  '/>	<g transform="translate(564.0,467.9)" stroke="none" fill="black" font-family="Arial" font-size="12.00"  text-anchor="middle">
		<text><tspan font-family="Arial" > 90</tspan></text>
	</g>
</g>
<g fill="none" color="black" stroke="currentColor" stroke-width="1.00" stroke-linecap="butt" stroke-linejoin="miter">
</g>
<g fill="none" color="black" stroke="currentColor" stroke-width="1.00" stroke-linecap="butt" stroke-linejoin="miter">
	<path stroke='black'  d='M53.9,18.1 L53.9,446.0 L615.0,446.0 L615.0,18.1 L53.9,18.1 Z  '/></g>
<g fill="none" color="black" stroke="currentColor" stroke-width="1.00" stroke-linecap="butt" stroke-linejoin="miter">
</g>
	<g id="gnuplot_plot_1" ><title>pages+cached+noexternal+nosvg</title>
<g fill="none" color="black" stroke="currentColor" stroke-width="1.00" stroke-linecap="butt" stroke-linejoin="miter">
	<g transform="translate(275.6,485.9)" stroke="none" fill="black" font-family="Arial" font-size="12.00"  text-anchor="end">
		<text><tspan font-family="Arial" >pages+cached+noexternal+nosvg</tspan></text>
	</g>
</g>
<g fill="none" color="black" stroke="currentColor" stroke-width="1.00" stroke-linecap="butt" stroke-linejoin="miter">
	<path stroke='rgb(148,   0, 211)'  d='M283.9,482.0 L326.1,482.0 M53.9,272.0 L59.6,270.0 L65.2,347.9 L70.9,325.3 L76.6,265.2 L82.2,363.8
		L87.9,357.9 L93.6,411.1 L99.2,223.5 L104.9,257.6 L110.6,298.9 L116.2,321.0 L121.9,299.5 L127.6,422.8
		L133.2,435.5 L138.9,268.3 L144.6,427.3 L150.3,232.9 L155.9,350.8 L161.6,290.1 L167.3,225.5 L172.9,333.2
		L178.6,317.1 L184.3,232.6 L189.9,306.9 L195.6,274.8 L201.3,224.7 L206.9,370.6 L212.6,421.3 L218.3,244.5
		L223.9,352.5 L229.6,391.6 L235.3,351.1 L240.9,368.3 L246.6,247.9 L252.3,356.7 L257.9,198.9 L263.6,214.2
		L269.3,322.7 L274.9,113.0 L280.6,135.7 L286.3,295.8 L291.9,351.9 L297.6,210.8 L303.3,249.1 L308.9,327.5
		L314.6,249.1 L320.3,320.5 L325.9,172.5 L331.6,220.7 L337.3,340.6 L343.0,277.1 L348.6,275.4 L354.3,261.0
		L360.0,296.1 L365.6,81.9 L371.3,350.2 L377.0,259.8 L382.6,232.6 L388.3,249.1 L394.0,355.6 L399.6,182.5
		L405.3,327.0 L411.0,261.5 L416.6,322.4 L422.3,330.7 L428.0,225.2 L433.6,422.2 L439.3,422.5 L445.0,314.8
		L450.6,370.6 L456.3,174.0 L462.0,384.2 L467.6,321.0 L473.3,299.5 L479.0,320.2 L484.6,231.5 L490.3,407.5
		L496.0,314.5 L501.6,350.2 L507.3,306.3 L513.0,300.9 L518.6,419.4 L524.3,323.3 L530.0,354.5 L535.7,425.9
		L541.3,291.6 L547.0,335.5 L552.7,293.8 L558.3,206.8 L564.0,266.9 L569.7,353.6 L575.3,144.5 L581.0,336.9
		L586.7,401.5 L592.3,277.4 L598.0,342.8 L603.7,423.3 L609.3,429.8 L615.0,306.6  '/></g>
	</g>
	<g id="gnuplot_plot_2" ><title>pages+cached+noexternal+noimg</title>
<g fill="none" color="black" stroke="currentColor" stroke-width="1.00" stroke-linecap="butt" stroke-linejoin="miter">
	<g transform="translate(575.1,485.9)" stroke="none" fill="black" font-family="Arial" font-size="12.00"  text-anchor="end">
		<text><tspan font-family="Arial" >pages+cached+noexternal+noimg</tspan></text>
	</g>
</g>
<g fill="none" color="black" stroke="currentColor" stroke-width="1.00" stroke-linecap="butt" stroke-linejoin="miter">
	<path stroke='rgb(  0, 158, 115)'  d='M583.4,482.0 L625.6,482.0 M53.9,392.4 L59.6,204.8 L65.2,288.7 L70.9,351.1 L76.6,318.8 L82.2,413.1
		L87.9,323.3 L93.6,96.3 L99.2,434.1 L104.9,234.6 L110.6,176.8 L116.2,431.8 L121.9,319.3 L127.6,251.0
		L133.2,300.9 L138.9,363.0 L144.6,373.4 L150.3,348.5 L155.9,329.2 L161.6,208.5 L167.3,381.9 L172.9,410.0
		L178.6,334.1 L184.3,217.0 L189.9,303.5 L195.6,358.4 L201.3,315.9 L206.9,302.9 L212.6,323.3 L218.3,432.1
		L223.9,307.1 L229.6,343.7 L235.3,221.3 L240.9,406.9 L246.6,228.4 L252.3,335.8 L257.9,156.4 L263.6,357.9
		L269.3,351.6 L274.9,327.0 L280.6,303.2 L286.3,110.5 L291.9,300.3 L297.6,437.8 L303.3,265.5 L308.9,272.6
		L314.6,304.6 L320.3,434.7 L325.9,231.2 L331.6,255.9 L337.3,375.7 L343.0,260.1 L348.6,290.1 L354.3,434.4
		L360.0,140.5 L365.6,316.5 L371.3,426.4 L377.0,255.9 L382.6,26.3 L388.3,385.9 L394.0,94.3 L399.6,334.9
		L405.3,361.0 L411.0,209.4 L416.6,249.9 L422.3,399.8 L428.0,315.1 L433.6,262.9 L439.3,282.5 L445.0,296.4
		L450.6,125.5 L456.3,314.8 L462.0,302.0 L467.6,329.0 L473.3,334.1 L479.0,411.4 L484.6,323.9 L490.3,244.5
		L496.0,409.2 L501.6,313.4 L507.3,302.6 L513.0,322.2 L518.6,193.2 L524.3,437.8 L530.0,324.7 L535.7,319.0
		L541.3,354.5 L547.0,251.3 L552.7,253.0 L558.3,315.1 L564.0,414.3 L569.7,315.4 L575.3,290.1 L581.0,299.2
		L586.7,293.8 L592.3,410.9 L598.0,296.4 L603.7,299.2 L609.3,410.3 L615.0,302.0  '/></g>
	</g>
<g fill="none" color="#FFFFFF" stroke="rgb(  0, 158, 115)" stroke-width="2.00" stroke-linecap="butt" stroke-linejoin="miter">
</g>
<g fill="none" color="black" stroke="currentColor" stroke-width="2.00" stroke-linecap="butt" stroke-linejoin="miter">
</g>
<g fill="none" color="black" stroke="black" stroke-width="1.00" stroke-linecap="butt" stroke-linejoin="miter">
</g>
<g fill="none" color="black" stroke="currentColor" stroke-width="1.00" stroke-linecap="butt" stroke-linejoin="miter">
	<path stroke='black'  d='M53.9,18.1 L53.9,446.0 L615.0,446.0 L615.0,18.1 L53.9,18.1 Z  '/></g>
<g fill="none" color="black" stroke="currentColor" stroke-width="1.00" stroke-linecap="butt" stroke-linejoin="miter">
</g>
</g>
</svg>
